X:224
T:Cliffs of Moher, The
R:jig
H:Mostly played in Ador, see #79, #196, #401
D:Tommy Keane: The Piper's Apron
Z:id:hn-jig-224
M:6/8
K:G
~g3 agf|dge fdc|AGG AGF|DGG ABc|
dgg agf|dge fdc|AGG AGF|1 DGF GBd:|2 DGF G2B||
|:~d3 cAA|ded cAG|E/F/GA cAG|E/F/GA cAc|
[1 ded cAA|ded cAG|E/F/GA cAF|AGF G2B:|
[2 ded cdd|Bdd cAG|E/F/GA cAF|AGF GBd||

